X:1
T:Hilderstone, LM
T:Hilderstone, LM
T:Phillip Hart, 1713
T:Public Domain Courtesy of the Cyber Hymnal™
C:Phillip Hart, 1713
Z:Public Domain
Z:Courtesy of the Cyber Hymnal™
%%score ( 1 2 ) ( 3 4 )
L:1/8
Q:1/4=110
M:4/4
K:G
V:1 treble 
V:2 treble 
V:3 bass 
V:4 bass 
V:1
 [DG]2 [GB][Gc] [Gd]2 [Ge]2 | d3 z c [GB]2 G2 | [GB]2 [Ge]2 A2 [Fd]2 | %3
 d2 [E^c]2 !fermata![Dd]2 [DA]2 | [EA]2 [EB]2 [Ec]2 [GB]2 | c2 z [Ee]2 [Ec]2 x | %6
 [FA]2 (Bc) [Gd]2 [EG]2 | [DG]2 [DF]2 [DG]6 |] %8
V:2
 x8 | G2 (F2 x G2) x2 | x4 (AG) x2 | (GF) x6 | x8 | G3 (d2 =F) x2 | x2 F2 x4 | x10 |] %8
V:3
 [G,B,]2 [G,D][E,E] [B,,D]2 (CB,) | [D,A,]2 [D,D]2 [G,D]2 [G,B,]2 x | (DC) [G,B,]2 [F,D]2 [B,D]2 | %3
 (B,A,) [A,,G,]2 !fermata![D,F,]2 [D,=F,]2 | [C,E,]2 [E,^G,]2 A,2 D2 | %5
 [E,C]2 [G,B,]2 [C,C]2 [A,C]2 | [D,D]2 [C,D]2 [B,,D]2 (CB,) | [D,A,]2 [D,A,]2 [G,,B,]6 |] %8
V:4
 x6 C,2 | x9 | G,2 x6 | E,2 x6 | x4 A,2 (=G,=F,) | x8 | x6 C,2 | x10 |] %8

